src/assets/image/icons/precision.svg

<svg width="62" height="62" viewBox="0 0 62 62" fill="none" xmlns="http://www.w3.org/2000/svg">
<g clip-path="url(#clip0_43_2130)">
<path d="M31 28.0938C37.4102 28.0938 42.625 22.879 42.625 16.4688C42.625 10.0585 37.4102 4.84375 31 4.84375C24.5898 4.84375 19.375 10.0585 19.375 16.4688C19.375 22.879 24.5898 28.0938 31 28.0938ZM31 6.78125C36.3417 6.78125 40.6875 11.1271 40.6875 16.4688C40.6875 21.8104 36.3417 26.1562 31 26.1562C25.6583 26.1562 21.3125 21.8104 21.3125 16.4688C21.3125 11.1271 25.6583 6.78125 31 6.78125ZM31 10.6562V8.71875C35.2732 8.71875 38.75 12.1956 38.75 16.4688H36.8125C36.8125 13.2632 34.2056 10.6562 31 10.6562ZM57.1562 53.2812H49.4062V51.3438H57.1562V53.2812ZM57.1562 57.1562H49.4062V55.2188H57.1562V57.1562ZM51.3438 36.2448L48.7213 33.6224L50.0912 32.2526L51.3438 33.5052L55.5026 29.3463L56.8724 30.7162L51.3438 36.2448ZM12.5938 53.2812H4.84375V51.3438H12.5938V53.2812ZM12.5938 57.1562H4.84375V55.2188H12.5938V57.1562ZM10.9401 29.3463L12.3099 30.7162L6.78125 36.2448L4.15884 33.6224L5.52866 32.2526L6.78125 33.5052L10.9401 29.3463ZM54.25 15.5H46.4506C45.9468 7.40513 39.2198 0.96875 31 0.96875C22.7802 0.96875 16.0532 7.40513 15.5494 15.5H7.75V26.1562H0.96875V39.7188H7.75V47.4688H0.96875V61.0312H16.4688V55.2188H22.6513L23.25 56.4161V61.0312H36.8125V56.4161L37.2165 55.6072C37.2794 55.4813 37.324 55.3466 37.3831 55.2188H45.5312V61.0312H61.0312V47.4688H54.25V39.7188H61.0312V26.1562H54.25V15.5ZM31 2.90625C38.4787 2.90625 44.5625 8.99 44.5625 16.4688C44.5625 23.9475 38.4787 30.0312 31 30.0312C23.5212 30.0312 17.4375 23.9475 17.4375 16.4688C17.4375 8.99 23.5212 2.90625 31 2.90625ZM35.4834 54.7412L35.2451 55.2188H24.8174L23.9698 53.5244C23.4748 52.5353 23.1628 51.4765 23.0407 50.3769L22.3384 44.0558C22.3006 43.7119 22.2812 43.368 22.2812 43.0222C22.2812 40.5616 23.2791 38.1532 25.0189 36.4143L26.1562 35.2761V48.2777C26.1562 49.9681 27.5319 51.3438 29.2233 51.3438C30.7278 51.3438 32.0007 50.2665 32.2487 48.7804L33.758 39.7188C35 39.7188 36.0288 40.6507 36.1528 41.8858L36.7505 47.8611C36.7922 48.2738 36.8125 48.6962 36.8125 49.1127C36.8125 51.056 36.3533 53.0032 35.4834 54.7412ZM33.758 37.7812C32.8067 37.7812 32.0027 38.4623 31.8467 39.401L30.3364 48.4627C30.2453 49.0091 29.7774 49.4062 29.2233 49.4062C28.6004 49.4062 28.0938 48.9006 28.0938 48.2777V31.6859C29.0363 31.8661 30.0061 31.9688 31 31.9688C31.9939 31.9688 32.9637 31.8661 33.9062 31.6859V37.7948C33.8559 37.7938 33.8084 37.7812 33.758 37.7812ZM2.90625 28.0938H14.5312V37.7812H2.90625V28.0938ZM14.5312 59.0938H2.90625V49.4062H14.5312V59.0938ZM9.6875 47.4688V39.7188H16.4688V26.1562H9.6875V17.4375H15.5494C15.9495 23.8652 20.2711 29.2398 26.1562 31.1831V32.5364L23.6491 35.0445C21.5169 37.1748 20.3438 40.0084 20.3438 43.0222C20.3438 43.4339 20.367 43.8524 20.4125 44.268L21.1149 50.5901C21.2176 51.5152 21.4394 52.4152 21.762 53.2803H16.4688V47.4678L9.6875 47.4688ZM34.875 59.0938H25.1875V57.1562H34.875V59.0938ZM59.0938 59.0938H47.4688V49.4062H59.0938V59.0938ZM52.3125 47.4688H45.5312V53.2812H38.1116C38.5175 51.9289 38.75 50.5242 38.75 49.1127C38.75 48.6312 38.7258 48.1449 38.6783 47.6683L38.0806 41.6931C37.9324 40.2167 37.0615 38.9941 35.8438 38.3267V31.1821C41.7289 29.2398 46.0505 23.8652 46.4506 17.4375H52.3125V26.1562H45.5312V39.7188H52.3125V47.4688ZM59.0938 37.7812H47.4688V28.0938H59.0938V37.7812Z" fill="url(#paint0_linear_43_2130)"/>
</g>
<defs>
<linearGradient id="paint0_linear_43_2130" x1="31" y1="61.0312" x2="31" y2="0.96875" gradientUnits="userSpaceOnUse">
<stop stop-color="#EC4F3A"/>
<stop offset="0.0001" stop-color="#6582FD"/>
<stop offset="1" stop-color="#E13E91"/>
</linearGradient>
<clipPath id="clip0_43_2130">
<rect width="62" height="62" fill="white"/>
</clipPath>
</defs>
</svg>

<svg xmlns="http://www.w3.org/2000/svg" width="62" height="62" fill="none"><g clip-path="url(#a)"><path fill="url(#b)" d="M31 28.094c6.41 0 11.625-5.215 11.625-11.625S37.41 4.844 31 4.844s-11.625 5.215-11.625 11.625S24.59 28.094 31 28.094M31 6.78c5.342 0 9.688 4.346 9.688 9.688 0 5.341-4.346 9.687-9.688 9.687s-9.687-4.346-9.687-9.687c0-5.342 4.345-9.688 9.687-9.688m0 3.875V8.72c4.273 0 7.75 3.477 7.75 7.75h-1.937A5.82 5.82 0 0 0 31 10.656m26.156 42.625h-7.75v-1.937h7.75zm0 3.875h-7.75V55.22h7.75zm-5.812-20.911-2.623-2.623 1.37-1.37 1.253 1.253 4.159-4.159 1.37 1.37zM12.594 53.28h-7.75v-1.937h7.75zm0 3.875h-7.75V55.22h7.75zm-1.654-27.81 1.37 1.37-5.529 5.529-2.622-2.623 1.37-1.37 1.252 1.253zM54.25 15.5h-7.8C45.948 7.405 39.22.969 31 .969S16.053 7.405 15.55 15.5h-7.8v10.656H.969V39.72H7.75v7.75H.969v13.56h15.5v-5.81h6.182l.599 1.197v4.615h13.563v-4.615l.404-.809c.062-.126.107-.26.166-.388h8.148v5.812h15.5V47.47H54.25v-7.75h6.781V26.156H54.25zM31 2.906c7.479 0 13.563 6.084 13.563 13.563S38.479 30.03 31 30.03s-13.562-6.082-13.562-13.56S23.52 2.906 31 2.906m4.483 51.835-.238.478H24.817l-.847-1.695a9.3 9.3 0 0 1-.93-3.147l-.702-6.321a10 10 0 0 1-.057-1.034c0-2.46.998-4.869 2.738-6.608l1.137-1.138v13.002a3.07 3.07 0 0 0 3.067 3.066 3.06 3.06 0 0 0 3.026-2.564l1.509-9.061a2.4 2.4 0 0 1 2.395 2.167l.598 5.975a12.64 12.64 0 0 1-1.267 6.88m-1.725-16.96c-.951 0-1.755.681-1.911 1.62l-1.51 9.062a1.13 1.13 0 0 1-2.243-.185V31.686c.942.18 1.912.283 2.906.283s1.964-.103 2.906-.283v6.109c-.05-.001-.098-.014-.148-.014M2.906 28.094h11.625v9.687H2.906zm11.625 31H2.906v-9.688h11.625zM9.687 47.469v-7.75h6.782V26.156H9.687v-8.718h5.862c.4 6.427 4.722 11.802 10.607 13.745v1.353l-2.507 2.508a11.2 11.2 0 0 0-3.305 7.978q0 .62.069 1.246l.702 6.322c.103.925.324 1.825.647 2.69h-5.293v-5.812zm25.188 11.625h-9.687v-1.938h9.687zm24.219 0H47.469v-9.688h11.625zm-6.782-11.625h-6.78v5.812h-7.42c.405-1.352.638-2.757.638-4.168 0-.482-.024-.968-.072-1.445l-.597-5.975a4.32 4.32 0 0 0-2.237-3.366v-7.145c5.885-1.942 10.206-7.317 10.607-13.744h5.861v8.718h-6.78V39.72h6.78zm6.782-9.688H47.469v-9.687h11.625z"/></g><defs><linearGradient id="b" x1="31" x2="31" y1="61.031" y2=".969" gradientUnits="userSpaceOnUse"><stop stop-color="#EC4F3A"/><stop offset="0" stop-color="#6582FD"/><stop offset="1" stop-color="#E13E91"/></linearGradient><clipPath id="a"><path fill="#fff" d="M0 0h62v62H0z"/></clipPath></defs></svg>
